packages/katcn/src/icons/svg/bag-solid.svg

<svg width="24" height="24" viewBox="0 0 24 24" fill="none" xmlns="http://www.w3.org/2000/svg">
<path d="M16 1H8C5.8 1 4 2.84186 4 5.09302V17.1674C4 19.4186 5.7 21.2605 7.9 21.2605V21.9767C7.9 22.5907 8.3 23 8.9 23C9.5 23 9.9 22.5907 9.9 21.9767V21.2605H14.1V21.9767C14.1 22.5907 14.5 23 15.1 23C15.7 23 16.1 22.5907 16.1 21.9767V21.2605C18.3 21.1581 20 19.4186 20 17.1674V5.09302C20 2.84186 18.2 1 16 1Z" fill="black"/>
<path d="M9 15.8C8.4 15.8 8 15.4 8 14.8V7.09998C8 6.49998 8.4 6.09998 9 6.09998C9.6 6.09998 10 6.49998 10 7.09998V14.7C10 15.3 9.6 15.8 9 15.8Z" fill="white"/>
<path d="M15 15.8C14.4 15.8 14 15.4 14 14.8V7.09998C14 6.49998 14.4 6.09998 15 6.09998C15.6 6.09998 16 6.49998 16 7.09998V14.7C16 15.3 15.6 15.8 15 15.8Z" fill="white"/>
</svg>

<svg xmlns="http://www.w3.org/2000/svg" fill="none" viewBox="0 0 24 24"><path fill="#000" d="M16 1H8C5.8 1 4 2.842 4 5.093v12.074c0 2.252 1.7 4.093 3.9 4.093v.717c0 .614.4 1.023 1 1.023s1-.41 1-1.023v-.716h4.2v.716c0 .614.4 1.023 1 1.023s1-.41 1-1.023v-.716c2.2-.103 3.9-1.842 3.9-4.094V5.093C20 2.842 18.2 1 16 1"/><path fill="#fff" d="M9 15.8c-.6 0-1-.4-1-1V7.1c0-.6.4-1 1-1s1 .4 1 1v7.6c0 .6-.4 1.1-1 1.1m6 0c-.6 0-1-.4-1-1V7.1c0-.6.4-1 1-1s1 .4 1 1v7.6c0 .6-.4 1.1-1 1.1"/></svg>
